X: 750
T: Air For Maurice Ogg
R: reel
M: 4/4
K: Dmajor
de|f2 A2 A2 d=c|B2<d2 G2 AG|F2>A2 d2>A2|d>e f<a e2 de|
f2 A2 A2 d=c|B2>G2 E2 AG|F2>A2 d2>A2|d>e f<e d2 cd|
e2 A2 A2 ce|d2>B2 G>A B<d|=c>B A<G F<A G>E|F2 D2 D2 cd|
e2 A2 A2 ce|f2 dd A>d f<a|g>e cB A<a g>e|d6||

